src/assets/images/toolbox/npm.svg

<svg
  width="40"
  height="15"
  viewBox="0 0 40 15"
  fill="transparent"
  xmlns="http://www.w3.org/2000/svg">
  <path
    fill="#CB3837"
    d="M0 0H40V12.8569H20V15H11.1114V12.8556H0V0ZM2.22286 10.7139H6.66714V4.28473H8.88857V10.7125H11.1114V2.14305H2.22286V10.7139ZM13.3343 2.14305V12.8569H17.7786V10.7139H22.2229V2.14305H13.3343ZM17.7786 4.28611H20V8.57222H17.7771L17.7786 4.28611ZM24.4457 2.14305V10.7139H28.89V4.28473H31.1129V10.7125H33.3357V4.28473H35.5586V10.7125H37.7814V2.14305H24.4457Z"
  />
</svg>

<svg xmlns="http://www.w3.org/2000/svg" width="40" height="15" fill="transparent" xmlns:v="https://vecta.io/nano">
  <path fill="#cb3837"
    d="M0 0h40v12.857H20V15h-8.889v-2.144H0V0zm2.223 10.714h4.444V4.285h2.221v6.428h2.223V2.143H2.223v8.571zm11.111-8.571v10.714h4.444v-2.143h4.444V2.143h-8.889zm4.444 2.143H20v4.286h-2.223l.002-4.286zm6.667-2.143v8.571h4.444V4.285h2.223v6.428h2.223V4.285h2.223v6.428h2.223V2.143H24.446z" />
</svg>
